X:1
T: The Boys of the Town
C:
R:Jig
Q:180
K:G
M:6/8
L:1/16
D2|G2F2G2 G2B2d2|e2d2B2 d2B2A2|G2F2G2 G2A2d2|e2d2B2 A2F2D2|G2F2G2 G2B2d2|e2d2B2 g2f2g2|e2d2A2 A2G2A2|B2G2G2 G4D2|
G2F2G2 G2B2d2|e2d2B2 d2B2A2|G2F2G2 G2A2d2|e2d2B2 A2F2D2|G2F2G2 G2B2d2|e2d2B2 g2f2g2|e2d2A2 A2G2A2|B2G2G2 G4B2|
d2e2f2 g2f2g2|a2f2d2 e2d2B2|d2e2f2 g2f2g2|a2f2d2 e4d2|d2e2f2 g2f2g2|a2f2d2 e2d2B2|e2d2B2 A2G2A2|B2G2G2 G4B2|
d2e2f2 g2f2g2|a2f2d2 e2d2B2|d2e2f2 g2f2g2|a2f2d2 e4d2|d2e2f2 g2b2b2|f2a2a2 e2f2g2|e2d2B2 A2G2A2|B2G2G2 G4||
